X:370
T:Mr Young's Delight. (p)1696.PLFD.370
M:4/4
L:1/8
Q:1/2=90
S:Playford, Dancing Master,9th Ed,1st Supp.,1696.
O:England
H:1696.
Z:Chris Partington
K:F
c2|A2F2F2G2|A4d4|c3d (cd)(cA)|B2G4B2|
A2F4G2|A4d4|f3g (fg)(ag)|f2c4f2|
d3c (de)(fd)|(cc)(cB) (Ac)(fc)|(de)(fd) (cd)(cA)|B2G2G2d2|
A2F4G2|A4d4|c3d (cd)(cA)|B2G4:|
|:ag|(fg)(af) (ga)(bg)|(ab)(ga) (fg)(ef)|(de)(fd) (ge)(dc)|G2c4B>A|
(Bd)(fd) (Ac)(fc)|(Bd)(fd) (Ac)(fc)|(dc)(BA) (GA)(GF)|F6|]
